X: 6779
T: Chapel Bell, The
R: jig
M: 6/8
K: Edorian
A|:~B3 EFA|Bde d3|~e3 BAF|FAd AFD|
~B3 ~E3|Bde d3|edB AFA|BED E2A:|
|:B3 ~e3|def f3|edB BAB|d3 dBA|
~B3 ~e3|~f3 a3|edB AFA|BED E2A:|

